X:1
T:Title
%%score { 1 | ( 2 3 ) }
L:1/8
Q:1/4=106
M:4/4
K:Eb
V:1 treble nm="Grand Piano"
V:2 bass 
V:3 bass 
V:1
 [GB]>[_G=A] [=GB]>[_Ac] [GB]2 A2 | G4 E2 z2 | [DF]>[_D=E] [=DF]>[_EG] [FA]2 [DAc]2 | [GB]6 z2 | %4
w: W.~H.~Wolfe * * * * *||||
 [GB]>A G>F E2 E2 | [CE]4 [CA]2 z2 | [B,EG]>[=A,E_G] [B,E=G]>[CEA] [B,EG]2 [_A,DF]2 | %7
w: |||
 [E,G,B,E]6 z2 | [DF]>[_D=E] [=DF]>[_EG] [FA]2 [DAc]2 | [EGB]4 G2 z2 | F>B c>e d2 c2 | [DB]6 z2 | %12
w: |||||
 [EGB]>A G>F E2 E2 | [CE]4 [CA]2 z2 | [B,EG]>[=A,E_G] [B,E=G]>[CEA] [B,EG]2 [_A,DF]2 | %15
w: |||
 [E,G,B,E]6 z2 |] %16
w: |
V:2
 [E,E]>[E,C] [E,B,]>[E,E] [E,E]2 [E,CE]2 | [E,B,E]4 [E,G,B,]2 z2 | %2
 [B,,B,]>[B,,B,] [B,,B,]>[B,,B,] [B,,B,]2 B,,2 | [E,E]6 z2 | %4
 [E,E]>[E,CE] [E,B,E]>[E,A,E] [E,G,]2 [G,B,_D]2 | [A,,A,]4 [A,,E,]2 z2 | %6
 B,,>B,, B,,>B,, B,,2 B,,2 | E,,6 z2 | [B,,B,]>[B,,B,] [B,,B,]>[B,,B,] [B,,B,]2 B,,2 | %9
 E,4 [E,B,E]2 z2 | [F,B,D]>[F,B,D] [F,=A,F]>[F,CF] [F,B,F]2 [F,A,E]2 | F,4 A,2 z2 | %12
 E,>[E,CE] [E,B,E]>[E,A,E] [E,G,]2 [G,B,_D]2 | [A,,A,]4 [A,,E,]2 z2 | B,,>B,, B,,>B,, B,,2 B,,2 | %15
 C,,6 z2 |] %16
V:3
 x8 | x8 | x8 | x8 | x8 | x8 | x8 | x8 | x8 | x8 | x8 | B,,6 z2 | x8 | x8 | x8 | x8 |] %16

